!!!COM: Robert Schumann
!!!OTL: Dichterliebe, Op.48
!!!OMV: Die alten, bösen Lieder
**kern	**dynam
*I"Voice	*
*clefG2	*
*k[f#c#g#d#]	*
*M4/4	*
*met(c)	*
=1	=1
!LO:TX:a:B:t=Ziemlich langsam	!
2.CC#; 2.C# 2.G# 2.e 2.cc# 2.ee 2.gg# 2.ccc#	.
8.r	.
16C# 16c# 16cc# 16ccc#	.
=2	=2
4..C#^ 4..c# 4..cc# 4..ccc#	.
16GG# 16G# 16g# 16gg#	.
4..GG#^ 4..G# 4..g# 4..gg#	.
16CC# 16C# 16c# 16cc#	.
=3	=3
[2CC#^ [2C# [2c# [2cc#	.
4CC#] 4C#] 4c#] 4cc#]	.
8G#'L 8c# 8e 8cc#	.
!	!LO:DY:a
8G#J 8c# 8e 8cc# 8dd#	f
=4	=4
[8G#L [8c# [8e [8cc# 8ee	.
8G#J] 8c#] 8e] 8cc#_ 8ff#	.
8C#'L 8cc#] 8ee	.
8C#'J 8cc# 8ccc#	.
[8G#^L [8d# [8f# [8g# 8b#X 8dd#	.
8G#J] 8d#] 8f#] 8g#_ 8ee	.
8C#'L 8g#] 8dd#	.
8C#'J 8g# 8bb#X	.
=5	=5
[8G#^L [8c# [8e 8cc# 8ee	.
8G#J] 8c#] 8e] 8ff#	.
8C#'L [8c# 8ee	.
8C#'J 8c#] 8ccc#	.
[8G#^L [8c# [8e 8g# 8cc#	.
8G#J] 8c#] 8e] 8dd#	.
8E'L 8cc#	.
8E'J 8c# 8gg#	.
=6	=6
[8AL [8c# [8f# 8a 8cc#	.
8AJ] 8c#] 8f#_ 8dd#	.
8F#'L 8f#] 8cc#	.
8F#'J 8f# 8aa	.
[8G#L [8d# [8f# [8g# 8b#X	.
8G#J] 8d#] 8f#] 8g#_ 8cc#	.
8G#'L 8g#] 8b#X	.
8G#'J 8g# 8gg#	.
=7	=7
[8G#L [8c# [8e 8g# 8cc#	.
8G#J] 8c#_ 8e] 8dd#	.
8C#'L 8c#_ 8cc#	.
8C#'J 8c#] 8gg#	.
[8G#L [8c# [8e 8cc#	.
8G#J] 8c#] 8e] 8dd#	.
8G#'L 8c# 8e 8cc#	.
8G#J 8c# 8e 8cc# 8dd#	.
=8	=8
[8G#L [8c# [8e [8cc# 8ee	.
8G#J] 8c#] 8e] 8cc#_ 8ff#	.
8C#'L 8cc#] 8ee	.
8C#'J 8cc# 8ccc#	.
[8G#L [8d# [8f# [8g# 8b#X 8dd#	.
8G#J] 8d#] 8f#] 8g#_ 8ee	.
8C#'L 8g#] 8dd#	.
8C#'J 8g# 8bb#X	.
=9	=9
[8G#L [8c# [8e 8cc# 8ee	.
8G#J] 8c#] 8e] 8ff#	.
8C#'L [8c# 8ee	.
8C#'J 8c#] 8ccc#	.
[8G#L [8c# [8e 8g# 8cc#	.
8G#J] 8c#] 8e] 8dd#	.
8C#'L 8cc#	.
8C#'J 8gg#	.
=10	=10
[8AL [8c# [8f# 8a 8cc#	.
8AJ] 8c#] 8f#] 8dd#	.
8F#'L 8f# 8cc#	.
8F#'J 8f# 8aa	.
[8G#L [8d# [8f# [8g# 8b#X	.
8G#J] 8d#] 8f#] 8g#_ 8cc#	.
8GG#'L 8g#] 8b#X	.
8GG#'J 8g# 8gg#	.
=11	=11
[8G#L [8c# [8e 8g# 8cc#	.
8G#J] 8c#_ 8e] 8dd#	.
8C#'L 8c#_ 8cc#	.
8C#'J 8c#] 8gg#	.
[8G#L [8c# [8e 8cc#	.
8G#J] 8c#] 8e] 8dd#	.
8A#X'L 8c# 8e 8f##X 8cc#	.
8A#XJ 8c# 8e 8f##X 8cc# 8dd#	.
=12	=12
[8A#XL [8c# [8e [8f##X [8cc# 8ee	.
8A#J] 8c#] 8e] 8f##] 8cc#_ 8ff#X	.
8C#'L 8cc#] 8ee	.
8C#'J 8cc# 8ccc#	.
[8A#XL [8c# [8d# [8f##X 8a#X 8dd#	.
8A#J] 8c#] 8d#_ 8f##] 8ee	.
8D#'L 8d#] 8dd#	.
8D#'J 8d# 8aa#X	.
=13	=13
[8BL [8d# [8g# [8b 8dd#	.
8BJ] 8d#] 8g#] 8b] 8ee	.
8GG#'L [8b 8dd#	.
8GG#'J 8b] 8bb	.
[8BL [8d# [8g# 8b 8dd#	.
8BJ] 8d#] 8g#] 8ee	.
8BB'L [8g# 8dd#	.
8BB'J 8g#] 8gg#	.
=14	=14
[8c#L [8e [8a#X 8cc# 8ee	.
8c#J] 8e] 8a#_ 8ff#	.
8C#'L 8a#] 8ee	.
8C#'J 8a#X 8aa#X	.
[8c#L [8d# [8f##X 8a#X 8dd#	.
8c#J] 8d#] 8f##] 8ee	.
8D#'L [8f##X 8dd#	.
8D#'J 8f##] 8ff##X	.
=15	=15
[8BL [8d# [8g# 8b 8dd#	.
8BJ] 8d#] 8g#_ 8ee	.
8G#'L 8g#_ 8dd#	.
8G#'J 8g#] 8gg#	.
4B 4d# 4g#	.
8EE'L 8E 8e	.
8EE'J 8E 8e 8f#	.
=16	=16
[8EEL [8E [8e	.
8EEJ] 8E] 8e_ 8f#	.
8GG#'L 8G# 8e] 8g#	.
8GG#'J 8G# 8g# 8a	.
[8GG#L [8G# [8g#	.
8GG#J] 8G#] 8g#_ 8a	.
8BB'L 8B 8g#] 8b	.
8BB'J 8B 8b 8cc#	.
=17	=17
[8BBL [8B [8b	.
8BBJ] 8B] 8b_ 8dd#	.
8E'L 8e 8b] 8ee	.
8E'J 8e 8ee 8ff#	.
[8EL [8e [8ee	.
8EJ] 8e] 8ee] 8ff#	.
8G#'L 8g# 8gg#	.
8A'J 8a 8aa	.
=18	=18
[8BL [8b 8bb	.
8BJ] 8b_ 8ccc#	.
8G#'L 8g# 8b] 8gg#	.
8A'J 8a 8b 8aa	.
[8BL [8b 8bb	.
8BJ] 8b_ 8ccc#	.
8B'L 8b] 8bb	.
8B'J 8b 8ff# 8ddd#	.
=19	=19
[8e'L 8b 8gg# 8eee	.
8B'J 8e_ 8b 8ff# 8ddd#	.
8e'L_ 8b 8gg# 8eee	.
8B'J 8e] 8b 8ff# 8ddd#	.
4e 4b 4gg# 4eee	.
8dn'L 8f# 8b 8ddn	.
8dn'J 8f# 8b 8ee	.
=20	=20
[8dnL [8f# [8b 8ddn 8ff#	.
8dJ] 8f#] 8b] 8bb	.
8dn'L 8f# 8a 8b 8ddn	.
8dn'J 8f# 8a 8b 8ee	.
[8dnL [8f# [8g# [8b 8ddn 8ff#	.
8dJ] 8f#] 8g#_ 8b] 8bb	.
8c#'L 8e#X 8g#] 8b 8ee#X	.
8c#'J 8e#X 8f# 8b 8ff#	.
=21	=21
[8c#L [8e#X [8b 8ee#X 8gg#	.
8c#J] 8e#_ 8b] 8bb	.
8c#'L 8e#] 8b 8ee#X	.
8c#'J 8e#X 8g# 8b 8ff#	.
[8c#L [8e#X [8g# [8b 8ee#X 8gg#	.
8c#J] 8e#] 8g#] 8b] 8bb	.
8dn'L 8f# 8b 8ddn	.
8dn'J 8f# 8b 8een	.
=22	=22
[8dnL [8f# [8b 8ddn 8ff#	.
8dJ] 8f#] 8b_ 8bb	.
8dn'L 8f# 8b] 8ddn	.
8dn'J 8f# 8a 8b 8ee	.
[8dnL [8f# [8g# [8b 8ddn 8ff#	.
8dJ] 8f#] 8g#] 8b] 8bb	.
8c#'L 8e#X [8f# 8b 8ee#X	.
8c#'J 8e#X 8f#] 8b 8ff#	.
=23	=23
[8c#L [8e#X [8b 8ee#X 8gg#	.
8c#J] 8e#_ 8b] 8bb	.
8c#'L 8e#_ 8b 8ee#X	.
8c#'J 8e#] 8b 8ff#	.
[8c#L [8e#X [8b 8ee#X 8gg#	.
8c#J] 8e#] 8b] 8bb	.
8FF#'L 8F# 8f#	.
8FF#'J 8F# 8f# 8g#	.
=24	=24
[8FF#L [8F# [8f#	.
8FF#J] 8F#] 8f#_ 8g#	.
8AA'L 8A 8f#] 8a	.
8AA'J 8A 8a 8b	.
[8AAL [8A [8a	.
8AAJ] 8A] 8a_ 8b	.
8C#'L 8c# 8a] 8cc#	.
8C#'J 8c# 8cc# 8ddn	.
=25	=25
[8C#L [8c# [8cc#	.
8C#J] 8c#] 8cc#_ 8ee#X	.
8F#'L 8f# 8cc#] 8ff#	.
8F#'J 8f# 8ff# 8gg#	.
[8F#L [8f# [8ff#	.
8F#J] 8f#] 8ff#] 8gg#	.
8A'L 8a 8aa	.
8B'J 8b 8bb	.
=26	=26
[8c#L [8cc# 8ccc#	.
8c#J] 8cc#_ 8dddn	.
8A'L 8a 8cc#] 8aa	.
8B'J 8b 8cc# 8bb	.
[8c#L [8cc# 8ccc#	.
8c#J] 8cc#_ 8dddn	.
8c#'L 8cc#] 8ccc#	.
8c#'J 8cc# 8gg# 8eee#X	.
=27	=27
[8f#'L 8cc# 8aa 8fff#	.
8c#'J 8f#_ 8cc# 8gg# 8eee#X	.
8f#'L_ 8cc# 8aa 8fff#	.
8c#'J 8f#] 8cc# 8gg# 8eee#X	.
4f# 4cc# 4aa 4fff#	.
8en'L 8g# 8cc# 8een	.
8e'J 8g# 8cc# 8ff#	.
=28	=28
[8eL [8g# [8cc# 8ee 8gg#	.
8eJ] 8g#] 8cc#_ 8ccc#	.
8e'L 8g# 8cc#] 8ee	.
8e'J 8g# 8b 8cc# 8ff#	.
[8eL [8g# [8a#X [8cc# 8ee 8gg#	.
8eJ] 8g#] 8a#] 8cc#] 8ccc#	.
8d#'L 8f##X [8g# 8cc# 8ff##X	.
8d#'J 8f##X 8g#] 8cc# 8gg#	.
=29	=29
[8d#L [8f##X [8cc# 8ff##X 8aa#X	.
8d#J] 8f##_ 8cc#] 8ccc#	.
8d#'L 8f##] 8cc# 8ff##X	.
8d#'J 8f##X 8a#X 8cc# 8gg#	.
[8d#L [8f##X [8a#X [8cc# 8ff##X 8aa#X	.
8d#J] 8f##] 8a#] 8cc#] 8ccc#	.
8e'L 8g# 8cc# 8ee	.
8e'J 8g# 8cc# 8ff#X	.
=30	=30
[8eL [8g# [8cc# 8ee 8gg#	.
8eJ] 8g#] 8cc#] 8ccc#	.
8e'L 8g# 8b 8cc# 8ee	.
8e'J 8g# 8b 8cc# 8ff#	.
[8eL [8g# [8a#X [8cc# 8ee 8gg#	.
8eJ] 8g#] 8a#_ 8cc#] 8ccc#	.
8d#'L 8f##X 8a#] 8cc# 8ff##X	.
8d#'J 8f##X 8g# 8cc# 8gg#	.
=31	=31
[8d#L [8f##X [8cc# 8ff##X 8aa#X	.
8d#J] 8f##_ 8cc#] 8ccc#	.
8d#'L 8f##_ 8cc# 8ff##X	.
8d#'J 8f##] 8cc# 8gg#	.
[8d#L [8f##X [8cc# 8ff##X 8aa#X	.
8d#J] 8f##] 8cc#] 8ccc#	.
8GG#L 8G# [8g#	.
8GG#'J 8G# 8g#] 8a#X	.
=32	=32
[8GG#L [8G# [8g#	.
8GG#J] 8G#] 8g#_ 8a#X	.
8BB#X'L 8B#X 8g#] 8b#X	.
8BB#X'J 8B#X 8b# 8cc#	.
[8BB#XL [8B#X [8b#X	.
8BB#J] 8B#] 8b#_ 8cc#	.
8D#'L 8d# 8b#] 8dd#	.
8D#'J 8d# 8dd# 8ee#X	.
=33	=33
[8D#L [8d# [8dd#	.
8D#J] 8d#] 8dd#_ 8ff##X	.
8G#'L 8g# 8dd#] 8gg#	.
8G#'J 8g# 8gg# 8aa#X	.
[8G#L [8g# [8gg#	.
8G#J] 8g#] 8gg#] 8aa#X	.
8B#X'L 8b#X 8bb#X	.
8c#'J 8cc# 8ccc#	.
=34	=34
[8d#L [8dd# 8ddd#	.
8d#J] 8dd#_ 8eee#X	.
8B#X'L 8b#X 8dd#] 8bb#X	.
8c#'J 8cc# 8dd# 8ccc#	.
[8d#L [8dd# 8ddd#	.
8d#J] 8dd#] 8eee#X	.
8d#'L [8dd# 8ddd#	.
8d#'J 8dd#] 8aa#X 8ddd# 8fff##X	.
=35	=35
[8g#'L 8dd# 8bb#X 8ddd# 8ggg#	.
8d#'J 8g#_ 8dd# 8aa#X 8ddd# 8fff##X	.
8g#'L_ 8dd# 8bb#X 8ddd# 8ggg#	.
8d#'J 8g#_ 8dd# 8aa#X 8ddd# 8fff##X	.
4g#] 4dd# 4bb#X 4ddd# 4ggg#	.
!	!LO:DY:a
4G# 4g# 4b#X 4dd# 4gg#	f
=36	=36
4C# 4c# 4cc#	.
[8G#^L [8c# [8e [8cc# [8ee [8gg# [8ccc#	.
8G#J] 8c#] 8e] 8cc#] 8ee] 8gg#] 8ccc#]	.
4GG# 4G# 4g#	.
4G# 4B#X 4d# 4g# 4b#X 4dd# 4gg#	.
=37	=37
4CC# 4C# 4c#	.
4E^ 4G# 4c# 4e 4g# 4cc#	.
4AA 4A	.
4E^ 4A 4c# 4e 4a 4cc#	.
=38	=38
4FF# 4F# 4a	.
[8F#^L [8A [8c# [8f# [8a [8cc# [8ff# [8aa	.
8F#J] 8A] 8c#] 8f#] 8a] 8cc#] 8ff#] 8aa]	.
4GG# 4G# [4g#	.
[8G#L [8B#X [8d# 8g#_ [8b#X [8dd# [8gg#	.
8G#J] 8B#] 8d#] 8g#] 8b#] 8dd#] 8gg#]	.
=39	=39
4AAA#X 4AA#X [4gn	.
[2C# [2G#X [2A#X [2c# [2e 2g_ [2a#X [2ee	.
8C#L_ 8G#_ 8A#_ 8c#_ 8e_ 8g_ 8a#_ 8ee_	.
8C#;J] 8G#] 8A#] 8c#] 8e] 8g] 8a#] 8ee]	.
=40	=40
[4.AAAn^ [4.AAn [4.F# [4.B#X [4.d# [4.f#	.
8AAA] 8AA] 8F#] 8B#] 8d#] 8f#]	.
[4.AA^ [4.A [4.d# [4.f# [4.b#X [4.dd#	.
8AA] 8A] 8d#] 8f#] 8b#] 8dd#]	.
=41	=41
[4EEE^ [4EE [4C# [4G# [4c# 4e	.
4EEE] 4EE] 4C#] 4G#] 4c#] 4e	.
[4EE^ [4E [4c# [4e [4g# [4cc#	.
4EE] 4E] 4c#] 4e] 4g#] 4cc#]	.
=42	=42
[4.FFF#^ [4.FF# [4.c# [4.d# [4.f# [4.a	.
8FFF#] 8FF#] 8c#] 8d#] 8f#] 8a]	.
[4.GGG#^ [4.GG# [4.F# [4.G# [4.B#X [4.d# [4.f# [4.g#	.
8GGG#] 8GG#] 8F#] 8G#] 8B#] 8d#] 8f#] 8g#]	.
=43	=43
[8CCC# [8CC# 8C# [8c#	.
4CCC#_ 4CC#_ 4C# 4c#_	.
8CCC#_ 8CC#_ [8C# 8c#_	.
8CCC#_ 8CC#_ 8C#] 8c#]	.
4CCC#_ 4CC#_ 4C# 4c#	.
8CCC#] 8CC#] [8C# [8c#	.
=44	=44
!	!LO:DY:a
[8CC#L 8C#_ 8c#_	p
8CC#J_ 8C#_ [8E#X [8G# [8B 8c#_	.
8CC#L_ 8C#_ 8E#] 8G#] 8B] 8c#]	.
8CC#J] 8C#] [8E#X [8G# [8B [8c#	.
[8DDn [8Dn 8E#] 8G#] 8B] 8c#] [8dn	.
4DD_ 4D_ 4E#X 4G# 4B 4d]	.
8DD] 8D] [8E#X [8G# [8B [8d	.
=45	=45
[8CC#L [8C# 8E#X] 8G#] 8B] [8c# 8dn]	.
8CC#J_ 8C#_ [8E#X [8G# [8B 8c#_	.
8CC#L_ 8C#_ 8E#] 8G#] 8B] 8c#_	.
8CC#J] 8C#] [8E#X [8G# [8B 8c#_	.
[8EE#XL 8E#_ 8G#] 8B] 8c#]	.
8EE#J_ 8E#_ [8G# [8B [8c# [8e#X	.
8EE#L_ 8E#_ 8G#] 8B] 8c#] 8e#]	.
8EE#J] 8E#] [8G# [8B [8c# [8e#X	.
=46	=46
[8CC# [8C# 8G#] 8B] 8c#_ 8e#X]	.
4CC#_ 4C#_ 4E#X 4G# 4B 4c#]	.
8CC#] 8C#] [8E#X [8G# [8B [8c#	.
[8GG# 8E#] 8G#_ 8B] 8c#] [8g#	.
4GG#_ 4G#_ 4B 4c# 4e#X 4g#]	.
8GG#] 8G#] [8B [8c# [8e#X [8g#	.
=47	=47
[8CC# [8C# 8B] 8c#_ 8e#X] 8g#]	.
4CC#_ 4C#_ 4E#X 4G# 4B 4c#_	.
8CC#] 8C#] [8E#X [8G# [8B 8c#_	.
[8C#L 8E#] 8G#] 8B] 8c#_	.
8C#J_ 8c#_ [8e#X [8g# [8cc#	.
!	!LO:DY:a
8C#L_ 8c#_ 8e#] 8g#] 8cc#_	p
8C#J_ 8c#] 8e#X 8g# 8cc#]	.
=48||	=48||
!LO:TX:a:B:t=Adagio	!
[4.AA 4.C#_ [4.En [4.Gn [4.c# [4.en 4.cc#	.
8AA_ 8C#] 8E] 8G_ 8c#] 8e] 8cc#	.
4AA_ 4Dn 4G_ 4B 4b	.
4AA] 4E 4G] 4c# 4cc#	.
=49	=49
[2DDn 2AA 2E 2Gn 2c# 2gn 2ee	.
4DD_ [4Dn [4F# [4dn [4f# 4ddn	.
4DD] 4D] 4F#] 4d] 4f#] 4cc#	.
=50	=50
[4.GGG# [4.GG# [4.F# [4.B#X [4.d# [4.f# 4.b#X	.
8GGG#] 8GG#] 8F#] 8B#] 8d#] 8f#] 8b#	.
[4.AAA [4.AA [4.E [4.c# [4.e 4.cc#	.
8AAA] 8AA] 8E] 8c#_ 8e] 8cc#	.
=51	=51
[2FFF# [2FF# [2D# [2A 2c#_ 2a	.
2FFF#_ 2FF#_ 2D#_ 2A_ 2c#_	.
=52	=52
2.FFF#] 2.FF#] 2.D#] 2.A] 2.c#]	.
4GGG# [4GG# 4D# 4G# 4B#X	.
=53||	=53||
*k[b-e-a-d-g-]	*
*M6/4	*
!LO:TX:a:B:t=Andante espressivo	!
[8DD-L 8AA-_ 8G- 8A- 8c 8e-	.
8DD-_ 8AA-_ [8ee-	.
8DD-_ 8AA-_ 8cc 8ee-_	.
8DD-_ 8AA-_ 8a- 8ee-_	.
8DD-_ 8AA-_ 8e- 8ee-_	.
8DD-J] 8AA-] 8c 8ee-_	.
[8G-L 8ee-]	.
8G-_ [8ff	.
8G-_ 8cc 8ff_	.
8G-_ 8a- 8ff_	.
8G-_ 8e- 8ff]	.
8G-J] 8c [8gg-	.
=54	=54
[8FL 8gg-]	.
8F_ [8aa-	.
8F_ 8dd- 8aa-_	.
8F_ 8a- 8aa-_	.
8F_ 8f 8aa-_	.
8FJ] 8d- 8aa-_	.
[8B--L 8aa-]	.
8B--_ [8dd-	.
8B--_ 8gn 8dd-_	.
8B--_ 8en 8dd-_	.
8B--] 8d- 8dd-]	.
8A-J 8c-X 8dn 8f 8a- 8cc-X [8ddn	.
=55	=55
[8GnL 8ddn]	.
8G_ [8ee-	.
8G_ 8b- 8ee-_	.
8G_ 8gn 8ee-_	.
8G_ 8e- 8ee-_	.
8GJ] 8B- 8ee-_	.
[8G-XL 8ee-]	.
8G-_ [8ff	.
8G-_ 8ccn 8ff_	.
8G-_ 8a- 8ff_	.
8G-_ 8e- 8ff]	.
8G-J] 8c [8gg-X	.
=56	=56
[8FL 8gg-]	.
8F_ [8aa-	.
8F_ 8dd- 8aa-_	.
8F_ 8a- 8aa-_	.
8F_ 8f 8aa-_	.
8FJ] 8d- 8aa-_	.
[8B--L 8aa-]	.
8B--_ [8dd-	.
8B--_ 8gn 8dd-_	.
8B--_ 8f-X 8dd-_	.
8B--] 8d- 8dd-]	.
8B-XJ 8e- [8dd-	.
=57	=57
[8AA-L [8A- 8dd-]	.
8AA-_ 8A-_ [8ff	.
8AA-_ 8A-_ 8dd- 8ff_	.
8AA-_ 8A-_ 8a- 8ff_	.
8AA-_ 8A-_ 8f 8ff_	.
8AA-J] 8A-] 8d- 8ff_	.
[8A-L 8ff]	.
8A-_ 8cc [8ee-	.
8A-_ 8a- 8ee-_	.
8A-_ 8g- 8ee-_	.
8A-_ 8e- 8ee-_	.
8A-J] 8c 8ee-_	.
=58	=58
[8AA-L 8ee-]	.
8AA-_ [8dd-	.
8AA-_ 8a- 8dd-_	.
8AA-_ 8f 8dd-_	.
8AA-_ 8d- 8dd-_	.
8AA-J] [8A- 8dd-_	.
8A-L_ 8dd-]	.
8A-_ [8a-	.
8A-_ 8g- 8a-_	.
8A-_ 8e- 8a-_	.
8A-_ 8c 8a-_	.
8A-J] 8a-]	.
=59	=59
[8D-L [8A- 8c 8g-	.
8D-_ 8A-_ 8gg-	.
8D-_ 8A-_ 8ff	.
8D-_ 8A-_ 8ee-	.
8D-_ 8A-_ 8dd-	.
8D-J_ 8A-_ 8cc	.
8D-L_ 8A-_ 8b-	.
8D-_ 8A-_ 8a-	.
8D-_ 8A-_ 8gn	.
8D-_ 8A-_ 8a-	.
8.D-_ 8.A-_ 8.gn 8.a- 8.b-	.
16D-Jk] 16A-] 16g-X	.
=60	=60
[8D-L [8A- [8c-X [8g-	.
8D-_ 8A-_ 8c-_ [8f 8g-_ 8ccc-X	.
8D-_ 8A-_ 8c-] 8f_ 8g-] 8bb-	.
8D-_ 8A-_ 8f_ 8aa-	.
8D-_ 8A-_ 8f_ 8gg-	.
8D-J_ 8A-_ 8f_ 8ff	.
8D-L_ 8A-_ 8f_ 8ee-	.
8D-_ 8A-_ 8f_ 8dd-	.
8D-_ 8A-_ 8f_ 8ccn	.
8D-_ 8A-_ 8f] 8dd-	.
8.D-_ 8.A-_ 8.cc 8.dd- 8.ee-	.
16D-Jk] 16A-] 16cc-X	.
=61	=61
[8DnL [8B- [8f [8a- 8b-	.
8D] 8B-_ 8f] 8a-] 8aa-	.
[8E- 8B-_ [8g- 8gg-	.
8E-] 8B-] 8g-] 8ee-	.
[8F [8A- [8dn [8a- [8b- 8ddn	.
8FJ] 8A-] 8d] 8a-] 8b-] 8ff	.
[8G-L [8B- [8e- [8g- 8ee-	.
8G-J] 8B-] 8e-] 8g-] 8b-	.
[4A- [4d-X 4f 4a- 4dd-X	.
8A-L] 8c 8d-] [8e- 8cc	.
8B-J 8e-] 8b-	.
=62	=62
[8DnL [8B- [8f [8a- 8b-	.
8D] 8B-_ 8f] 8a-] 8aa-	.
[8E- 8B-_ [8g- 8gg-	.
8E-] 8B-] 8g-] 8ee-	.
[8F [8A- [8dn [8a- [8b- 8ddn	.
8FJ] 8A-] 8d] 8a-] 8b-] 8ff	.
[8G-L [8B- [8e- [8g- 8ee-	.
8G-J] 8B-] 8e-] 8g-] 8b-	.
[4A- 4d-X 4f [4a- 4dd-X	.
8A-L_ 8c [8e- 8a-_ 8cc	.
8A-'J] 8c-X 8e-] 8a-] 8cc-X	.
=63	=63
[8DnL [8B- [8f [8a- 8b-	.
8D] 8B-] 8f] 8a-] 8aa-	.
[8E- [8B- [8g- 8gg-	.
8E-] 8B-] 8g-] 8ee-	.
[8F [8B- [8dn [8a- 8ddn	.
8FJ] 8B-] 8d] 8a-] 8ff	.
[8GnL [8B- [8e- [8b- [8dd-X 8ee-	.
8G] 8B-] 8e-] 8b-] 8dd-] 8ddd-X	.
[8A- [8e- [8a- [8cc 8ccc	.
8A-] 8e-] 8a-] 8cc] 8aa-	.
[8B- [8e- [8gn [8dd- [8ee- 8ggn	.
8B-J] 8e-] 8g] 8dd-] 8ee-] 8bb-	.
=64	=64
[8cL [8e- [8a- [8ee- [8gg- 8aa-	.
8c] 8e-] 8a-] 8ee-] 8gg-] 8ggg-	.
[8d- [8a- [8dd- [8ff 8fff	.
8d-] 8a-] 8dd-] 8ff] 8ddd-	.
[8e- [8a- [8cc [8gg- [8aa- 8ccc	.
8e-J] 8a-] 8cc] 8gg-] 8aa-] 8eee-	.
[8enL [8b- 8dd- [8ggn [8bb- 8ddd-	.
8e] 8b-] 8cc 8gg] 8bb-] 8ccc	.
[8f 8b- [8cc [8ff 8bb-	.
8f] 8a- 8cc] 8ff] 8aa-	.
[8c [8g-X 8b-- [8ee-X [8gg-X 8bb--	.
8cJ] 8g-] 8a- 8ee-] 8gg-] 8aa-	.
=65	=65
[8d-L 8g- [8a- [8dd- 8gg-	.
8d-] 8f 8a-] 8dd-] 8ff	.
[8Gn [8e- [8b- 8ee- [8bb-	.
8G] 8d- 8e-] 8b-] 8dd- 8bb-]	.
[8A- 8c 8a- [8cc [8ff	.
[16AA-L 16A-_ [16g-X 16cc_ 16ff]	.
16AA-JJ] 16A-_ 16g-] 16cc] 16ee-	.
[8D-L 8A-_ 8f [8dd-	.
8D-_ 8A-_ 8a- 8dd-_	.
8D-_ 8A-_ 8f 8dd-_	.
8D-] 8A-] 8d- 8dd-]	.
[8A- 8c [8g- [8ff	.
[16AA-L 16A-_ 16g-_ 16ff]	.
16AA-JJ] 16A-_ 16g-] 16ee-	.
=66	=66
[8D-L 8A-_ 8f [8dd-	.
8D-_ 8A-_ 8a- 8dd-_	.
8D-_ 8A-_ 8f 8dd-_	.
8D-] 8A-] 8d- 8dd-]	.
[8A- 8c [8g- [8ff	.
[16AA-L 16A-_ 16g-_ 16ff]	.
16AA-JJ] 16A-_ 16g-_ 16ee-	.
[8D-L 8A-_ 8g-] [8dd-	.
8D-_ 8A-] [8g- 8dd-_	.
8D-_ 8d- 8g-_ 8dd-_	.
8D-] 8A- 8g-_ 8dd-_	.
[8D- 8g-_ 8dd-_	.
[8AA-J 8D-_ 8g-] 8dd-_	.
=67	=67
4DD- 4AA-] 4D-] 4f 4dd-]	.
2r	.
==	==
*-	*-
!!!YEM: OpenScore (CC0)
